usr/share/icons/biglinux-icons-material/scalable/apps/qbittorrent.svg

<svg width="24" height="24" viewBox="0 0 24 24" fill="none" xmlns="http://www.w3.org/2000/svg">
<path fill-rule="evenodd" clip-rule="evenodd" d="M9.59604 1.11359C9.71588 1.11486 9.83043 1.0996 9.93969 1.06779C11.3755 0.973736 12.8111 0.977551 14.2467 1.07924C15.5484 1.18066 16.8085 1.46308 18.0269 1.9265C20.0525 2.76044 21.4386 4.2069 22.185 6.26586C22.6119 7.50549 22.8639 8.78021 22.9411 10.09C23.0478 11.7347 23.0096 13.3758 22.8265 15.0133C22.6895 16.1642 22.3916 17.271 21.933 18.3336C21.0824 20.1761 19.704 21.447 17.7978 22.1463C16.2531 22.6682 14.6647 22.943 13.0325 22.9706C11.1966 23.0661 9.37913 22.9287 7.57997 22.5585C4.26839 21.8208 2.22559 19.8018 1.45158 16.5017C1.12311 15.0161 0.974199 13.5124 1.00483 11.9906C0.968176 10.3724 1.14 8.77709 1.52031 7.20471C2.33171 4.11908 4.2905 2.20701 7.39669 1.46852C8.12048 1.29157 8.8536 1.17326 9.59604 1.11359Z" fill="url(#paint0_linear_3_191)"/>
<path fill-rule="evenodd" clip-rule="evenodd" d="M12.6548 4.66667H13.9643V8.64762C14.7325 8.18783 15.6463 7.94096 16.5833 7.94048C19.1151 7.94048 21.1667 9.69912 21.1667 11.869C21.1667 14.039 19.1151 15.7976 16.5833 15.7976C15.6458 15.7957 14.7321 15.5474 13.9643 15.0866V16.4524H12.6548V4.66667ZM10.0357 7.28571H11.3452V19.0714H10.0357V15.0905C9.26746 15.5503 8.3537 15.7966 7.41667 15.7976C4.88492 15.7976 2.83333 14.039 2.83333 11.869C2.83333 9.69912 4.88492 7.94048 7.41667 7.94048C8.35419 7.94242 9.26795 8.19074 10.0357 8.6515V7.28571ZM7.41667 9.25C5.60855 9.25 4.14286 10.4228 4.14286 11.869C4.14286 13.3153 5.60855 14.4881 7.41667 14.4881C8.44828 14.4866 9.41927 14.0962 10.0357 13.4342V10.3025C9.41878 9.6414 8.44828 9.25145 7.41667 9.25ZM16.5833 9.25C15.5517 9.25145 14.5807 9.64189 13.9643 10.3039V13.4356C14.5812 14.0967 15.5517 14.4871 16.5833 14.4881C18.3914 14.4881 19.8571 13.3153 19.8571 11.869C19.8571 10.4228 18.3914 9.25 16.5833 9.25Z" fill="white"/>
<defs>
<linearGradient id="paint0_linear_3_191" x1="12" y1="1" x2="12" y2="12" gradientUnits="userSpaceOnUse">
<stop stop-color="#7DB9FF"/>
<stop offset="1" stop-color="#197CF1"/>
</linearGradient>
</defs>
</svg>

<svg xmlns="http://www.w3.org/2000/svg" width="24" height="24" fill="none"><path fill="url(#a)" fill-rule="evenodd" d="M9.596 1.114c.12 0 .234-.014.344-.046a31.627 31.627 0 0 1 4.307.011c1.301.102 2.561.384 3.78.848 2.025.833 3.412 2.28 4.158 4.339.427 1.24.679 2.514.756 3.824a27.94 27.94 0 0 1-.114 4.923 11.88 11.88 0 0 1-.894 3.32c-.85 1.843-2.229 3.114-4.135 3.813a15.624 15.624 0 0 1-4.765.825 21.423 21.423 0 0 1-5.453-.413c-3.312-.737-5.354-2.756-6.128-6.056a19.047 19.047 0 0 1-.447-4.511 18.491 18.491 0 0 1 .515-4.786c.812-3.086 2.77-4.998 5.877-5.736a13.953 13.953 0 0 1 2.199-.355Z" clip-rule="evenodd"/><path fill="#fff" fill-rule="evenodd" d="M12.655 4.667h1.31v3.98a5.123 5.123 0 0 1 2.618-.707c2.532 0 4.584 1.76 4.584 3.929 0 2.17-2.052 3.929-4.584 3.929a5.128 5.128 0 0 1-2.619-.711v1.365h-1.31V4.667Zm-2.62 2.619h1.31V19.07h-1.31v-3.98a5.128 5.128 0 0 1-2.618.707c-2.532 0-4.584-1.759-4.584-3.929S4.885 7.94 7.417 7.94c.937.002 1.851.25 2.619.712V7.286ZM7.418 9.25c-1.808 0-3.274 1.173-3.274 2.619 0 1.446 1.466 2.62 3.274 2.62 1.031-.002 2.002-.393 2.619-1.055v-3.131C9.419 9.64 8.448 9.25 7.416 9.25Zm9.166 0c-1.031.001-2.002.392-2.619 1.054v3.132c.617.66 1.588 1.051 2.62 1.052 1.807 0 3.273-1.173 3.273-2.619 0-1.446-1.466-2.619-3.274-2.619Z" clip-rule="evenodd"/><defs><linearGradient id="a" x1="12" x2="12" y1="1" y2="12" gradientUnits="userSpaceOnUse"><stop stop-color="#7DB9FF"/><stop offset="1" stop-color="#197CF1"/></linearGradient></defs></svg>
